Newaita-dark/apps/16/com.github.artemanufrij.graphui.svg

<svg height="16pt" viewBox="0 0 16 16" width="16pt" xmlns="http://www.w3.org/2000/svg" xmlns:xlink="http://www.w3.org/1999/xlink"><linearGradient id="a" gradientUnits="userSpaceOnUse" x1="7.938261" x2="7.938261" y1="14.0169675" y2="14.67848943751"><stop offset="0" stop-opacity=".27451"/><stop offset="1" stop-opacity="0"/></linearGradient><linearGradient id="b"><stop offset="0" stop-opacity=".313725"/><stop offset=".222222" stop-opacity=".27451"/><stop offset="1" stop-opacity="0"/></linearGradient><radialGradient id="c" cx="450.90894" cy="189.57936" gradientTransform="matrix(.00000009 -.0390662 -.0703192 -.00000005 26.065324 31.797667)" gradientUnits="userSpaceOnUse" r="21.166656" xlink:href="#b"/><radialGradient id="d" cx="450.90894" cy="189.57936" gradientTransform="matrix(-.00000009 .0390662 .0703192 .00000005 -10.188807 -3.763739)" gradientUnits="userSpaceOnUse" r="21.166656" xlink:href="#b"/><radialGradient id="e" cx="450.90894" cy="189.57936" gradientTransform="matrix(-.00000009 -.0390662 .0703192 -.00000005 -10.188807 31.797667)" gradientUnits="userSpaceOnUse" r="21.166656" xlink:href="#b"/><radialGradient id="f" cx="450.90894" cy="189.57936" gradientTransform="matrix(.00000009 .0390662 -.0703192 .00000005 26.065323 -3.76374)" gradientUnits="userSpaceOnUse" r="21.166656" xlink:href="#b"/><linearGradient id="g" gradientUnits="userSpaceOnUse" x1="5.29217456249" x2="5.29217456249" y1="14.0169675" y2="1.44805287502"><stop offset="0" stop-color="#8d6e63"/><stop offset="1" stop-color="#a1887f"/></linearGradient><linearGradient id="h"><stop offset="0" stop-color="#bdbdbd"/><stop offset="1" stop-color="#e0e0e0"/></linearGradient><linearGradient id="i" gradientUnits="userSpaceOnUse" x1="960" x2="960.00006" xlink:href="#h" y1="1695.1182" y2="175.11812"/><linearGradient id="j" gradientUnits="userSpaceOnUse" x1="7.93825870386" x2="7.9382592" xlink:href="#h" y1="14.01696629816" y2="1.44805531933"/><path d="m2.976562 13.96875h9.921876v.734375h-9.921876zm0 0" fill="url(#a)"/><path d="m12.898438 14.015625h1.324218v-.660156h-1.324218zm0 0" fill="url(#c)"/><path d="m2.976562 14.015625h-1.324218v.664063h1.324218zm0 0" fill="url(#d)"/><path d="m2.976562 14.015625h-1.324218v-.660156h1.324218zm0 0" fill="url(#e)"/><path d="m12.898438 14.015625h1.324218v.664063h-1.324218zm0 0" fill="url(#f)"/><path d="m2.316406 1.449219h11.246094c.363281 0 .660156.296875.660156.660156v11.246094c0 .367187-.296875.660156-.660156.660156h-11.246094c-.367187 0-.664062-.292969-.664062-.660156v-11.246094c0-.363281.296875-.660156.664062-.660156zm0 0" fill="url(#g)"/><path d="m2.316406 1.449219c-.367187 0-.664062.292969-.664062.660156v.082031c0-.367187.296875-.660156.664062-.660156h11.246094c.363281 0 .660156.292969.660156.660156v-.082031c0-.367187-.296875-.660156-.660156-.660156zm0 0" fill="#e6e6e6" fill-opacity=".392157"/><path d="m2.316406 14.015625c-.367187 0-.664062-.292969-.664062-.660156v-.082031c0 .367187.296875.660156.664062.660156h11.246094c.363281 0 .660156-.292969.660156-.660156v.082031c0 .367187-.296875.660156-.660156.660156zm0 0" fill-opacity=".196078"/><path d="m74.117922-168.629428h359.840637c11.62389 0 21.122983 9.499093 21.122983 21.122983v359.840637c0 11.748878-9.499093 21.122982-21.122983 21.122982h-359.840637c-11.748878 0-21.247971-9.374104-21.247971-21.122982v-359.840637c0-11.62389 9.499093-21.122983 21.247971-21.122983zm0 0" fill="none" stroke="#212121" stroke-linecap="round" stroke-width="3" transform="matrix(.031253 0 0 .031253 0 6.719392)"/><path d="m958.491158 492.70886c-87.865626 4.723959-156.835419 27.398959-208.798961 67.08021-52.435938 40.153646-86.448439 96.841147-108.651043 165.810939-44.405209 138.411981-43.932813 329.732296-43.932813 569.709382h45.35c0-2.834375 0-5.196354 0-7.558333l32.122917 18.423438 139.829169-242.339066-34.484896-19.840625-137.46719 237.615107c.472396-233.363545 1.889584-418.070318 41.570834-541.838028 20.313021-63.301042 49.601563-110.540626 93.061981-143.608335 43.460417-33.540104 102.509897-53.38073 184.234377-58.577084zm5.66875 0-2.834375 44.877605c81.72448 5.196354 140.77396 25.03698 184.234377 58.577084 43.460417 33.067709 72.74896 80.307293 93.061981 143.608335 40.153646 124.712502 41.570833 310.836463 41.570833 546.561986l-140.301564-242.339065-34.484896 19.840625 139.829168 242.339066 34.957292-19.840626v8.975521h45.350001c0-239.977086.472396-431.297401-43.932813-569.709382-22.202604-68.969792-56.215105-125.657293-108.651043-165.810939-51.963542-39.681251-120.933335-62.356251-208.798961-67.08021zm-24.092188 182.344794v179.982815h40.153647v-179.982815zm0 0" fill="url(#i)" stroke="#212121" stroke-linecap="round" stroke-linejoin="round" stroke-width="11.338583" transform="scale(.00826902)"/><path d="m7.9375 2.769531c-.824219 0-1.488281.664063-1.488281 1.488281 0 .828126.664062 1.488282 1.488281 1.488282s1.488281-.660156 1.488281-1.488282c0-.824218-.664062-1.488281-1.488281-1.488281zm-1.324219 3.96875c-.363281 0-.660156.296875-.660156.664063v.992187c0 .367188.296875.660157.660156.660157h2.648438c.367187 0 .660156-.292969.660156-.660157v-.992187c0-.367188-.292969-.664063-.660156-.664063zm-2.644531 3.640625c-.367188 0-.660156.292969-.660156.660156v.992188c0 .367188.292968.664062.660156.664062h2.644531c.367188 0 .664063-.296874.664063-.664062v-.992188c0-.367187-.296875-.660156-.664063-.660156zm5.292969 0c-.367188 0-.660157.292969-.660157.660156v.992188c0 .367188.292969.664062.660157.664062h2.644531c.367188 0 .664062-.296874.664062-.664062v-.992188c0-.367187-.296874-.660156-.664062-.660156zm0 0" fill="url(#j)"/><path d="m7.9375 2.769531c-.824219 0-1.488281.664063-1.488281 1.488281 0 .042969.003906.085938.003906.125.066406-.765624.703125-1.363281 1.484375-1.363281.785156 0 1.421875.597657 1.484375 1.363281.003906-.039062.003906-.082031.003906-.125 0-.824218-.664062-1.488281-1.488281-1.488281zm-1.324219 3.96875c-.363281 0-.660156.296875-.660156.664063v.246094c0-.363282.296875-.660157.660156-.660157h2.648438c.367187 0 .660156.296875.660156.660157v-.246094c0-.367188-.292969-.664063-.660156-.664063zm-2.644531 3.640625c-.367188 0-.660156.292969-.660156.660156v.25c0-.367187.292968-.664062.660156-.664062h2.644531c.367188 0 .664063.296875.664063.664062v-.25c0-.367187-.296875-.660156-.664063-.660156zm5.292969 0c-.367188 0-.660157.292969-.660157.660156v.25c0-.367187.292969-.664062.660157-.664062h2.644531c.367188 0 .664062.296875.664062.664062v-.25c0-.367187-.296874-.660156-.664062-.660156zm0 0" fill="#fff" fill-opacity=".392157"/><path d="m6.457031 4.425781c-.003906.054688-.007812.109375-.007812.164063 0 .824218.664062 1.488281 1.488281 1.488281s1.488281-.664063 1.488281-1.488281c0-.054688-.003906-.109375-.007812-.164063-.082031.746094-.710938 1.320313-1.480469 1.320313s-1.398438-.574219-1.480469-1.320313zm-.503906 3.96875v.332031c0 .363282.296875.660157.660156.660157h2.648438c.367187 0 .660156-.296875.660156-.660157v-.332031c0 .367188-.292969.660157-.660156.660157h-2.648438c-.363281 0-.660156-.292969-.660156-.660157zm-2.644531 3.636719v.332031c0 .367188.292968.660157.660156.660157h2.644531c.367188 0 .664063-.292969.664063-.660157v-.332031c0 .367188-.296875.664062-.664063.664062h-2.644531c-.367188 0-.660156-.296874-.660156-.664062zm5.292968 0v.332031c0 .367188.292969.660157.660157.660157h2.644531c.367188 0 .664062-.292969.664062-.660157v-.332031c0 .367188-.296874.664062-.664062.664062h-2.644531c-.367188 0-.660157-.296874-.660157-.664062zm0 0" fill-opacity=".235294"/><path d="m959.908345 334.92865c-99.675522 0-179.982814 80.307293-179.982814 179.982815 0 100.147918 80.307292 179.982815 179.982814 179.982815 99.675523 0 179.982815-79.834897 179.982815-179.982815 0-99.675522-80.307292-179.982815-179.982815-179.982815zm-160.142189 479.954173c-43.932813 0-79.834897 35.902084-79.834897 80.307292v119.988544c0 44.405209 35.902084 79.834896 79.834897 79.834896h320.284379c44.405209 0 79.834897-35.429687 79.834897-79.834896v-119.988544c0-44.405208-35.429688-80.307292-79.834897-80.307292zm-319.811983 440.272922c-44.405209 0-79.834897 35.429688-79.834897 79.834897v119.988543c0 44.405209 35.429688 80.307293 79.834897 80.307293h319.811983c44.405209 0 80.307293-35.902084 80.307293-80.307293v-119.988543c0-44.405209-35.902084-79.834897-80.307293-79.834897zm640.096362 0c-44.405209 0-79.834897 35.429688-79.834897 79.834897v119.988543c0 44.405209 35.429688 80.307293 79.834897 80.307293h319.811983c44.405209 0 80.307293-35.902084 80.307293-80.307293v-119.988543c0-44.405209-35.902084-79.834897-80.307293-79.834897zm0 0" fill="none" stroke="#212121" stroke-linecap="round" stroke-linejoin="round" stroke-width="11.338583" transform="scale(.00826902)"/></svg>

<?xml version="1.0" encoding="UTF-8"?>
<svg xmlns="http://www.w3.org/2000/svg" xmlns:xlink="http://www.w3.org/1999/xlink" width="16pt" height="16pt" viewBox="0 0 16 16" version="1.1">
<defs>
<linearGradient id="linear0" gradientUnits="userSpaceOnUse" x1="254" y1="233.5" x2="254" y2="254.66667" gradientTransform="matrix(0.031253,0,0,0.031253,-0.00000125012,6.719392)">
<stop offset="0" style="stop-color:rgb(0%,0%,0%);stop-opacity:0.27451;"/>
<stop offset="1" style="stop-color:rgb(0%,0%,0%);stop-opacity:0;"/>
</linearGradient>
<radialGradient id="radial0" gradientUnits="userSpaceOnUse" cx="450.90894" cy="189.57936" fx="450.90894" fy="189.57936" r="21.166656" gradientTransform="matrix(0.0000000870852,-0.0390662,-0.0703192,-0.0000000507693,26.065324,31.797667)">
<stop offset="0" style="stop-color:rgb(0%,0%,0%);stop-opacity:0.313725;"/>
<stop offset="0.222222" style="stop-color:rgb(0%,0%,0%);stop-opacity:0.27451;"/>
<stop offset="1" style="stop-color:rgb(0%,0%,0%);stop-opacity:0;"/>
</radialGradient>
<radialGradient id="radial1" gradientUnits="userSpaceOnUse" cx="450.90894" cy="189.57936" fx="450.90894" fy="189.57936" r="21.166656" gradientTransform="matrix(-0.0000000870852,0.0390662,0.0703192,0.0000000507693,-10.188807,-3.763739)">
<stop offset="0" style="stop-color:rgb(0%,0%,0%);stop-opacity:0.313725;"/>
<stop offset="0.222222" style="stop-color:rgb(0%,0%,0%);stop-opacity:0.27451;"/>
<stop offset="1" style="stop-color:rgb(0%,0%,0%);stop-opacity:0;"/>
</radialGradient>
<radialGradient id="radial2" gradientUnits="userSpaceOnUse" cx="450.90894" cy="189.57936" fx="450.90894" fy="189.57936" r="21.166656" gradientTransform="matrix(-0.0000000870852,-0.0390662,0.0703192,-0.0000000507693,-10.188807,31.797667)">
<stop offset="0" style="stop-color:rgb(0%,0%,0%);stop-opacity:0.313725;"/>
<stop offset="0.222222" style="stop-color:rgb(0%,0%,0%);stop-opacity:0.27451;"/>
<stop offset="1" style="stop-color:rgb(0%,0%,0%);stop-opacity:0;"/>
</radialGradient>
<radialGradient id="radial3" gradientUnits="userSpaceOnUse" cx="450.90894" cy="189.57936" fx="450.90894" fy="189.57936" r="21.166656" gradientTransform="matrix(0.0000000870852,0.0390662,-0.0703192,0.0000000507693,26.065323,-3.76374)">
<stop offset="0" style="stop-color:rgb(0%,0%,0%);stop-opacity:0.313725;"/>
<stop offset="0.222222" style="stop-color:rgb(0%,0%,0%);stop-opacity:0.27451;"/>
<stop offset="1" style="stop-color:rgb(0%,0%,0%);stop-opacity:0;"/>
</radialGradient>
<linearGradient id="linear1" gradientUnits="userSpaceOnUse" x1="169.33333" y1="233.5" x2="169.33333" y2="-168.66666" gradientTransform="matrix(0.031253,0,0,0.031253,0,6.719392)">
<stop offset="0" style="stop-color:rgb(55.294118%,43.137255%,38.823529%);stop-opacity:1;"/>
<stop offset="1" style="stop-color:rgb(63.137255%,53.333333%,49.803922%);stop-opacity:1;"/>
</linearGradient>
<linearGradient id="linear2" gradientUnits="userSpaceOnUse" x1="960" y1="1695.1182" x2="960.00006" y2="175.11812" >
<stop offset="0" style="stop-color:rgb(74.117647%,74.117647%,74.117647%);stop-opacity:1;"/>
<stop offset="1" style="stop-color:rgb(87.843137%,87.843137%,87.843137%);stop-opacity:1;"/>
</linearGradient>
<linearGradient id="linear3" gradientUnits="userSpaceOnUse" x1="959.99994" y1="1695.1182" x2="960" y2="175.11813" gradientTransform="matrix(0.00826902,0,0,0.00826902,0,0)">
<stop offset="0" style="stop-color:rgb(74.117647%,74.117647%,74.117647%);stop-opacity:1;"/>
<stop offset="1" style="stop-color:rgb(87.843137%,87.843137%,87.843137%);stop-opacity:1;"/>
</linearGradient>
</defs>
<g id="surface1">
<path style=" stroke:none;fill-rule:nonzero;fill:url(#linear0);" d="M 2.976562 13.96875 L 12.898438 13.96875 L 12.898438 14.703125 L 2.976562 14.703125 Z M 2.976562 13.96875 "/>
<path style=" stroke:none;fill-rule:nonzero;fill:url(#radial0);" d="M 12.898438 14.015625 L 14.222656 14.015625 L 14.222656 13.355469 L 12.898438 13.355469 Z M 12.898438 14.015625 "/>
<path style=" stroke:none;fill-rule:nonzero;fill:url(#radial1);" d="M 2.976562 14.015625 L 1.652344 14.015625 L 1.652344 14.679688 L 2.976562 14.679688 Z M 2.976562 14.015625 "/>
<path style=" stroke:none;fill-rule:nonzero;fill:url(#radial2);" d="M 2.976562 14.015625 L 1.652344 14.015625 L 1.652344 13.355469 L 2.976562 13.355469 Z M 2.976562 14.015625 "/>
<path style=" stroke:none;fill-rule:nonzero;fill:url(#radial3);" d="M 12.898438 14.015625 L 14.222656 14.015625 L 14.222656 14.679688 L 12.898438 14.679688 Z M 12.898438 14.015625 "/>
<path style=" stroke:none;fill-rule:nonzero;fill:url(#linear1);" d="M 2.316406 1.449219 L 13.5625 1.449219 C 13.925781 1.449219 14.222656 1.746094 14.222656 2.109375 L 14.222656 13.355469 C 14.222656 13.722656 13.925781 14.015625 13.5625 14.015625 L 2.316406 14.015625 C 1.949219 14.015625 1.652344 13.722656 1.652344 13.355469 L 1.652344 2.109375 C 1.652344 1.746094 1.949219 1.449219 2.316406 1.449219 Z M 2.316406 1.449219 "/>
<path style=" stroke:none;fill-rule:nonzero;fill:rgb(90.196078%,90.196078%,90.196078%);fill-opacity:0.392157;" d="M 2.316406 1.449219 C 1.949219 1.449219 1.652344 1.742188 1.652344 2.109375 L 1.652344 2.191406 C 1.652344 1.824219 1.949219 1.53125 2.316406 1.53125 L 13.5625 1.53125 C 13.925781 1.53125 14.222656 1.824219 14.222656 2.191406 L 14.222656 2.109375 C 14.222656 1.742188 13.925781 1.449219 13.5625 1.449219 Z M 2.316406 1.449219 "/>
<path style=" stroke:none;fill-rule:nonzero;fill:rgb(0%,0%,0%);fill-opacity:0.196078;" d="M 2.316406 14.015625 C 1.949219 14.015625 1.652344 13.722656 1.652344 13.355469 L 1.652344 13.273438 C 1.652344 13.640625 1.949219 13.933594 2.316406 13.933594 L 13.5625 13.933594 C 13.925781 13.933594 14.222656 13.640625 14.222656 13.273438 L 14.222656 13.355469 C 14.222656 13.722656 13.925781 14.015625 13.5625 14.015625 Z M 2.316406 14.015625 "/>
<path style="fill:none;stroke-width:3;stroke-linecap:round;stroke-linejoin:miter;stroke:rgb(12.941176%,12.941176%,12.941176%);stroke-opacity:1;stroke-miterlimit:4;" d="M 74.117922 -168.629428 L 433.958559 -168.629428 C 445.582449 -168.629428 455.081542 -159.130335 455.081542 -147.506445 L 455.081542 212.334192 C 455.081542 224.08307 445.582449 233.457174 433.958559 233.457174 L 74.117922 233.457174 C 62.369044 233.457174 52.869951 224.08307 52.869951 212.334192 L 52.869951 -147.506445 C 52.869951 -159.130335 62.369044 -168.629428 74.117922 -168.629428 Z M 74.117922 -168.629428 " transform="matrix(0.031253,0,0,0.031253,0,6.719392)"/>
<path style="fill-rule:nonzero;fill:url(#linear2);stroke-width:11.338583;stroke-linecap:round;stroke-linejoin:round;stroke:rgb(12.941176%,12.941176%,12.941176%);stroke-opacity:1;stroke-miterlimit:4;" d="M 958.491158 492.70886 C 870.625532 497.432819 801.655739 520.107819 749.692197 559.78907 C 697.256259 599.942716 663.243758 656.630217 641.041154 725.600009 C 596.635945 864.01199 597.108341 1055.332305 597.108341 1295.309391 L 642.458341 1295.309391 C 642.458341 1292.475016 642.458341 1290.113037 642.458341 1287.751058 L 674.581258 1306.174496 L 814.410427 1063.83543 L 779.925531 1043.994805 L 642.458341 1281.609912 C 642.930737 1048.246367 644.347925 863.539594 684.029175 739.771884 C 704.342196 676.470842 733.630738 629.231258 777.091156 596.163549 C 820.551573 562.623445 879.601053 542.782819 961.325533 537.586465 Z M 964.159908 492.70886 L 961.325533 537.586465 C 1043.050013 542.782819 1102.099493 562.623445 1145.55991 596.163549 C 1189.020327 629.231258 1218.30887 676.470842 1238.621891 739.771884 C 1278.775537 864.484386 1280.192724 1050.608347 1280.192724 1286.33387 L 1139.89116 1043.994805 L 1105.406264 1063.83543 L 1245.235432 1306.174496 L 1280.192724 1286.33387 C 1280.192724 1289.168245 1280.192724 1292.00262 1280.192724 1295.309391 L 1325.542725 1295.309391 C 1325.542725 1055.332305 1326.015121 864.01199 1281.609912 725.600009 C 1259.407308 656.630217 1225.394807 599.942716 1172.958869 559.78907 C 1120.995327 520.107819 1052.025534 497.432819 964.159908 492.70886 Z M 940.06772 675.053654 L 940.06772 855.036469 L 980.221367 855.036469 L 980.221367 675.053654 Z M 940.06772 675.053654 " transform="matrix(0.00826902,0,0,0.00826902,0,0)"/>
<path style=" stroke:none;fill-rule:nonzero;fill:url(#linear3);" d="M 7.9375 2.769531 C 7.113281 2.769531 6.449219 3.433594 6.449219 4.257812 C 6.449219 5.085938 7.113281 5.746094 7.9375 5.746094 C 8.761719 5.746094 9.425781 5.085938 9.425781 4.257812 C 9.425781 3.433594 8.761719 2.769531 7.9375 2.769531 Z M 6.613281 6.738281 C 6.25 6.738281 5.953125 7.035156 5.953125 7.402344 L 5.953125 8.394531 C 5.953125 8.761719 6.25 9.054688 6.613281 9.054688 L 9.261719 9.054688 C 9.628906 9.054688 9.921875 8.761719 9.921875 8.394531 L 9.921875 7.402344 C 9.921875 7.035156 9.628906 6.738281 9.261719 6.738281 Z M 3.96875 10.378906 C 3.601562 10.378906 3.308594 10.671875 3.308594 11.039062 L 3.308594 12.03125 C 3.308594 12.398438 3.601562 12.695312 3.96875 12.695312 L 6.613281 12.695312 C 6.980469 12.695312 7.277344 12.398438 7.277344 12.03125 L 7.277344 11.039062 C 7.277344 10.671875 6.980469 10.378906 6.613281 10.378906 Z M 9.261719 10.378906 C 8.894531 10.378906 8.601562 10.671875 8.601562 11.039062 L 8.601562 12.03125 C 8.601562 12.398438 8.894531 12.695312 9.261719 12.695312 L 11.90625 12.695312 C 12.273438 12.695312 12.570312 12.398438 12.570312 12.03125 L 12.570312 11.039062 C 12.570312 10.671875 12.273438 10.378906 11.90625 10.378906 Z M 9.261719 10.378906 "/>
<path style=" stroke:none;fill-rule:nonzero;fill:rgb(100%,100%,100%);fill-opacity:0.392157;" d="M 7.9375 2.769531 C 7.113281 2.769531 6.449219 3.433594 6.449219 4.257812 C 6.449219 4.300781 6.453125 4.34375 6.453125 4.382812 C 6.519531 3.617188 7.15625 3.019531 7.9375 3.019531 C 8.722656 3.019531 9.359375 3.617188 9.421875 4.382812 C 9.425781 4.34375 9.425781 4.300781 9.425781 4.257812 C 9.425781 3.433594 8.761719 2.769531 7.9375 2.769531 Z M 6.613281 6.738281 C 6.25 6.738281 5.953125 7.035156 5.953125 7.402344 L 5.953125 7.648438 C 5.953125 7.285156 6.25 6.988281 6.613281 6.988281 L 9.261719 6.988281 C 9.628906 6.988281 9.921875 7.285156 9.921875 7.648438 L 9.921875 7.402344 C 9.921875 7.035156 9.628906 6.738281 9.261719 6.738281 Z M 3.96875 10.378906 C 3.601562 10.378906 3.308594 10.671875 3.308594 11.039062 L 3.308594 11.289062 C 3.308594 10.921875 3.601562 10.625 3.96875 10.625 L 6.613281 10.625 C 6.980469 10.625 7.277344 10.921875 7.277344 11.289062 L 7.277344 11.039062 C 7.277344 10.671875 6.980469 10.378906 6.613281 10.378906 Z M 9.261719 10.378906 C 8.894531 10.378906 8.601562 10.671875 8.601562 11.039062 L 8.601562 11.289062 C 8.601562 10.921875 8.894531 10.625 9.261719 10.625 L 11.90625 10.625 C 12.273438 10.625 12.570312 10.921875 12.570312 11.289062 L 12.570312 11.039062 C 12.570312 10.671875 12.273438 10.378906 11.90625 10.378906 Z M 9.261719 10.378906 "/>
<path style=" stroke:none;fill-rule:nonzero;fill:rgb(0%,0%,0%);fill-opacity:0.235294;" d="M 6.457031 4.425781 C 6.453125 4.480469 6.449219 4.535156 6.449219 4.589844 C 6.449219 5.414062 7.113281 6.078125 7.9375 6.078125 C 8.761719 6.078125 9.425781 5.414062 9.425781 4.589844 C 9.425781 4.535156 9.421875 4.480469 9.417969 4.425781 C 9.335938 5.171875 8.707031 5.746094 7.9375 5.746094 C 7.167969 5.746094 6.539062 5.171875 6.457031 4.425781 Z M 5.953125 8.394531 L 5.953125 8.726562 C 5.953125 9.089844 6.25 9.386719 6.613281 9.386719 L 9.261719 9.386719 C 9.628906 9.386719 9.921875 9.089844 9.921875 8.726562 L 9.921875 8.394531 C 9.921875 8.761719 9.628906 9.054688 9.261719 9.054688 L 6.613281 9.054688 C 6.25 9.054688 5.953125 8.761719 5.953125 8.394531 Z M 3.308594 12.03125 L 3.308594 12.363281 C 3.308594 12.730469 3.601562 13.023438 3.96875 13.023438 L 6.613281 13.023438 C 6.980469 13.023438 7.277344 12.730469 7.277344 12.363281 L 7.277344 12.03125 C 7.277344 12.398438 6.980469 12.695312 6.613281 12.695312 L 3.96875 12.695312 C 3.601562 12.695312 3.308594 12.398438 3.308594 12.03125 Z M 8.601562 12.03125 L 8.601562 12.363281 C 8.601562 12.730469 8.894531 13.023438 9.261719 13.023438 L 11.90625 13.023438 C 12.273438 13.023438 12.570312 12.730469 12.570312 12.363281 L 12.570312 12.03125 C 12.570312 12.398438 12.273438 12.695312 11.90625 12.695312 L 9.261719 12.695312 C 8.894531 12.695312 8.601562 12.398438 8.601562 12.03125 Z M 8.601562 12.03125 "/>
<path style="fill:none;stroke-width:11.338583;stroke-linecap:round;stroke-linejoin:round;stroke:rgb(12.941176%,12.941176%,12.941176%);stroke-opacity:1;stroke-miterlimit:4;" d="M 959.908345 334.92865 C 860.232823 334.92865 779.925531 415.235943 779.925531 514.911465 C 779.925531 615.059383 860.232823 694.89428 959.908345 694.89428 C 1059.583868 694.89428 1139.89116 615.059383 1139.89116 514.911465 C 1139.89116 415.235943 1059.583868 334.92865 959.908345 334.92865 Z M 799.766156 814.882823 C 755.833343 814.882823 719.931259 850.784907 719.931259 895.190115 L 719.931259 1015.178659 C 719.931259 1059.583868 755.833343 1095.013555 799.766156 1095.013555 L 1120.050535 1095.013555 C 1164.455744 1095.013555 1199.885432 1059.583868 1199.885432 1015.178659 L 1199.885432 895.190115 C 1199.885432 850.784907 1164.455744 814.882823 1120.050535 814.882823 Z M 479.954173 1255.155745 C 435.548964 1255.155745 400.119276 1290.585433 400.119276 1334.990642 L 400.119276 1454.979185 C 400.119276 1499.384394 435.548964 1535.286478 479.954173 1535.286478 L 799.766156 1535.286478 C 844.171365 1535.286478 880.073449 1499.384394 880.073449 1454.979185 L 880.073449 1334.990642 C 880.073449 1290.585433 844.171365 1255.155745 799.766156 1255.155745 Z M 1120.050535 1255.155745 C 1075.645326 1255.155745 1040.215638 1290.585433 1040.215638 1334.990642 L 1040.215638 1454.979185 C 1040.215638 1499.384394 1075.645326 1535.286478 1120.050535 1535.286478 L 1439.862518 1535.286478 C 1484.267727 1535.286478 1520.169811 1499.384394 1520.169811 1454.979185 L 1520.169811 1334.990642 C 1520.169811 1290.585433 1484.267727 1255.155745 1439.862518 1255.155745 Z M 1120.050535 1255.155745 " transform="matrix(0.00826902,0,0,0.00826902,0,0)"/>
</g>
</svg>
